X: 2
T: the Ash Grove
O: traditional Welsh, based on O'Carolan's "Beauty in Tears"
%D:1802
M: 3/4 %%X:52 WJ 2015
L: 1/8
P: Play AABA or AABABA
K: G
"^A"[|] D2 |\
"G"G2 B2 dc | B2 G2 G2 | "Am"AB cB AG | "D7"F2 D2 D2 |\
"G"GA BA GF | "C"E2 C2 E2 | "G"D2 G2 "D7"F2 | "G"G4 :|
"^B"[|] Bc |\
"G"d2 Bc de | d2 c2 B2 | "Am"c2 AB cd | "D7"c2 B2 A2 |\
"G"B2 GA Bc | "Em"B2 A2 G2 | "D"F2 d2 "A7"^c2 | "D7"d4 ||
%"^A"[|] D2 |\
%"G"G2 B2 dc | B2 G2 G2 | "Am"AB cB AG | "D7"F2 D2 D2 "^I"|\
%"G"GA BA GF | "C"E2 C2 E2 | "G"D2 G2 "D7"F2 | "G"G4 |]
%%begintext
%% The song's pattern is AABA, but musicians often like to repeat the BA part instrumentally.
%%endtext


